packages/appstore/src/assets/svgs/wallets/wallets-upgrade-mobile.svg

<svg width="94" height="66" viewBox="0 0 94 66" fill="none" xmlns="http://www.w3.org/2000/svg">
<path d="M31.7449 41.3995L28.7121 42.032L25.2638 26.0898L24.2009 26.3098L27.6493 42.252L24.6165 42.8845C24.089 42.9945 23.7534 43.5052 23.8653 44.0198L31.8528 80.9681H41.2988L32.9037 42.1302C32.7918 41.6116 32.2724 41.2816 31.7489 41.3916L31.7449 41.3995Z" fill="#FF444F"/>
<path d="M9.94266 57.9544C9.83078 57.4359 9.31133 57.1059 8.78789 57.2159L5.7551 57.8484L2.30674 41.9102L1.24387 42.1302L4.69222 58.0723L1.65943 58.7048C1.13199 58.8148 0.796343 59.3255 0.908225 59.8402L5.47539 80.9719H14.9214L9.94266 57.9505V57.9544Z" fill="#FF444F"/>
<path d="M41.948 27.5694L38.9153 28.2019L35.4669 12.2598L34.404 12.4798L37.8524 28.4219L34.8196 29.0544C34.2921 29.1644 33.9565 29.6751 34.0684 30.1898L45.0448 80.9705H54.4908L43.1028 28.3041C42.9909 27.7855 42.4715 27.4555 41.948 27.5655V27.5694Z" fill="#FF444F"/>
<path d="M55.4715 29.0948L52.4387 29.7273L48.9903 13.7852L47.9275 14.0052L51.3758 29.9473L48.343 30.5798C47.8156 30.6898 47.4799 31.2005 47.5918 31.7152L58.2405 80.9677H67.6866L56.6303 29.8255C56.5184 29.3069 55.9989 28.9769 55.4755 29.0869L55.4715 29.0948Z" fill="#85ACB0"/>
<path d="M15.2983 21.7122C15.1864 21.1936 14.667 20.8636 14.1435 20.9736L11.1107 21.6061L8.62537 10.1426H7.51455L10.0399 21.8301L7.00709 22.4626C6.47964 22.5726 6.144 23.0833 6.25588 23.5979L18.6588 80.9708H28.1048L15.2983 21.7122Z" fill="#85ACB0"/>
<path d="M69.6121 33.4854L66.5793 34.1179L63.131 18.1758L62.0681 18.3958L65.5164 34.3379L62.4837 34.9704C61.9562 35.0804 61.6206 35.5911 61.7324 36.1058L71.4302 80.9661H80.8762L70.7709 34.2161C70.659 33.6976 70.1395 33.3676 69.6161 33.4776L69.6121 33.4854Z" fill="#FF444F"/>
<path d="M81.0652 25.4483L78.0324 26.0808L74.5841 10.1426L73.5212 10.3626L76.9696 26.3047L73.9368 26.9372C73.4093 27.0472 73.0737 27.5579 73.1856 28.0726L84.6215 80.9708H94.0675L82.224 26.1829C82.1121 25.6644 81.5927 25.3344 81.0692 25.4444L81.0652 25.4483Z" fill="#85ACB0"/>
<path d="M92.0652 15.4483L89.0324 16.0808L85.5841 0.142578L84.5212 0.362578L87.9696 16.3047L84.9368 16.9372C84.4093 17.0472 84.0737 17.5579 84.1856 18.0726L95.6215 70.9708H105.067L93.224 16.1829C93.1121 15.6644 92.5927 15.3344 92.0692 15.4444L92.0652 15.4483Z" fill="#85ACB0"/>
</svg>

<svg width="94" height="66" viewBox="0 0 94 66" fill="none" xmlns="http://www.w3.org/2000/svg"><path d="m31.745 41.4-3.033.632-3.448-15.942-1.063.22 3.448 15.942-3.033.633a.958.958 0 0 0-.75 1.135l7.987 36.948h9.446L32.904 42.13a.975.975 0 0 0-1.155-.738l-.004.008ZM9.943 57.954a.975.975 0 0 0-1.155-.738l-3.033.632L2.307 41.91l-1.063.22 3.448 15.942-3.033.633a.958.958 0 0 0-.75 1.135l4.566 21.132h9.446L9.943 57.95v.003ZM41.948 27.57l-3.033.632-3.448-15.942-1.063.22 3.448 15.942-3.032.632a.958.958 0 0 0-.752 1.136l10.977 50.78h9.446L43.103 28.305a.975.975 0 0 0-1.155-.738v.003Z" fill="#FF444F"/><path d="m55.471 29.095-3.032.632-3.449-15.942-1.063.22 3.449 15.942-3.033.633a.958.958 0 0 0-.751 1.135L58.24 80.968h9.447L56.63 29.826a.975.975 0 0 0-1.155-.74l-.004.009Zm-40.173-7.383a.975.975 0 0 0-1.155-.738l-3.032.632-2.486-11.463h-1.11L10.04 21.83l-3.033.633a.958.958 0 0 0-.751 1.135L18.659 80.97h9.446L15.298 21.712Z" fill="#85ACB0"/><path d="m69.612 33.485-3.033.633-3.448-15.942-1.063.22 3.448 15.942-3.032.632a.959.959 0 0 0-.752 1.136l9.698 44.86h9.446l-10.105-46.75a.975.975 0 0 0-1.155-.738l-.004.007Z" fill="#FF444F"/><path d="m81.065 25.448-3.033.633-3.448-15.938-1.063.22 3.449 15.942-3.033.632a.958.958 0 0 0-.751 1.136L84.62 80.97h9.447L82.224 26.183a.975.975 0 0 0-1.155-.739l-.004.004Zm11-10-3.033.633L85.584.143l-1.063.22 3.449 15.942-3.033.632a.958.958 0 0 0-.751 1.136L95.62 70.97h9.446L93.224 16.183a.975.975 0 0 0-1.155-.739l-.004.004Z" fill="#85ACB0"/></svg>
